tools/download-figma-icons/icons/outlined-medium/remote-control.svg

<svg width="24" height="24" viewBox="0 0 24 24" fill="none" xmlns="http://www.w3.org/2000/svg">
<path fill-rule="evenodd" clip-rule="evenodd" d="M23.1456 11.5196C23.1621 11.5203 23.1793 11.5211 23.1958 11.5211C23.5873 11.5211 23.9166 11.2173 23.9436 10.8206C24.1318 7.99159 23.0293 5.15884 20.9196 3.04909C18.8016 0.931091 15.9666 -0.169909 13.1203 0.0213413C12.7071 0.0498413 12.3951 0.408341 12.4236 0.820841C12.4513 1.23409 12.8091 1.53109 13.2231 1.51834C15.6253 1.35034 18.0471 2.29759 19.8591 4.10959C21.6636 5.91334 22.6063 8.32309 22.4466 10.7216C22.4188 11.1341 22.7316 11.4918 23.1456 11.5196ZM19.8669 11.5211C19.8429 11.5211 19.8189 11.5203 19.7942 11.5173C19.3824 11.4776 19.0802 11.1116 19.1192 10.6991C19.2692 9.14584 18.6894 7.58959 17.5292 6.42934C16.3517 5.25184 14.7917 4.67359 13.2527 4.84009C12.8424 4.87909 12.4704 4.58734 12.4262 4.17559C12.3812 3.76384 12.6789 3.39334 13.0899 3.34909C15.0827 3.13009 17.0889 3.86734 18.5897 5.36884C20.0679 6.84634 20.8044 8.84209 20.6132 10.8431C20.5757 11.2308 20.2487 11.5211 19.8669 11.5211ZM8.97086 9.66521C9.70136 8.93471 10.6614 8.56946 11.6206 8.56946C12.5799 8.56946 13.5399 8.93471 14.2704 9.66521C15.7314 11.1262 15.7314 13.5037 14.3026 14.934L6.84086 21.5647C5.42336 22.7692 3.53636 22.7865 2.35586 21.606C1.20011 20.4502 1.21886 18.5212 2.38811 17.1307L8.97086 9.66521ZM1.29536 22.6665C2.17511 23.5462 3.30611 23.988 4.47386 23.988C5.62436 23.988 6.81086 23.5575 7.82411 22.6965L15.3309 16.0252C17.3769 13.98 17.3769 10.65 15.3309 8.60471C13.2849 6.55796 9.95636 6.55871 7.87811 8.63921L1.25186 16.152C-0.43414 18.1552 -0.41464 20.9565 1.29536 22.6665ZM9.29552 13.1995C9.49352 13.0015 9.75452 12.9018 10.0155 12.9018C10.2765 12.9018 10.5368 13.0015 10.7355 13.1995C11.133 13.597 11.133 14.2435 10.7355 14.6403C10.3388 15.0378 9.69227 15.0378 9.29552 14.6403C8.89802 14.2435 8.89802 13.597 9.29552 13.1995ZM8.23428 15.7008C8.72553 16.192 9.37053 16.438 10.0155 16.438C10.6605 16.438 11.3055 16.192 11.7968 15.7008C12.7778 14.719 12.7778 13.1215 11.7968 12.139C10.8143 11.158 9.21678 11.158 8.23428 12.139C7.25253 13.1215 7.25253 14.719 8.23428 15.7008Z" fill="black"/>
</svg>

<svg width="24" height="24" viewBox="0 0 24 24" fill="none" xmlns="http://www.w3.org/2000/svg"><path fill-rule="evenodd" clip-rule="evenodd" d="m23.146 11.52.05.001a.75.75 0 0 0 .748-.7c.188-2.83-.915-5.662-3.024-7.772C18.802.931 15.967-.17 13.12.021a.75.75 0 0 0-.696.8c.027.413.385.71.8.697 2.401-.168 4.823.78 6.635 2.592 1.805 1.803 2.747 4.213 2.588 6.612a.75.75 0 0 0 .699.798Zm-3.28.001c-.023 0-.047 0-.072-.004a.75.75 0 0 1-.675-.818c.15-1.553-.43-3.11-1.59-4.27-1.177-1.177-2.737-1.755-4.276-1.589a.75.75 0 1 1-.163-1.491c1.993-.219 3.999.518 5.5 2.02 1.478 1.477 2.214 3.473 2.023 5.474a.75.75 0 0 1-.746.678ZM8.972 9.665a3.736 3.736 0 0 1 2.65-1.096 3.74 3.74 0 0 1 2.65 1.096c1.46 1.461 1.46 3.839.032 5.269l-7.462 6.63c-1.418 1.205-3.305 1.223-4.485.042-1.156-1.156-1.137-3.085.032-4.475l6.583-7.466ZM1.295 22.667a4.451 4.451 0 0 0 3.179 1.321c1.15 0 2.337-.43 3.35-1.291l7.507-6.672a5.253 5.253 0 0 0 0-7.42c-2.046-2.047-5.375-2.046-7.453.034l-6.626 7.513c-1.686 2.003-1.667 4.804.043 6.514Zm8-9.468a1.016 1.016 0 0 1 1.44 0 1.02 1.02 0 0 1-1.44 1.441 1.02 1.02 0 0 1 0-1.44Zm-1.06 2.502a2.512 2.512 0 0 0 1.78.737c.646 0 1.29-.246 1.782-.737a2.523 2.523 0 0 0 0-3.562 2.524 2.524 0 0 0-3.563 0 2.522 2.522 0 0 0 0 3.562Z" fill="currentColor"/></svg>
